X:1
T:Armenian dance
T:Armenian dance
%%score ( 1 2 )
L:1/8
Q:1/4=80
M:4/4
K:F
V:1 bass nm="上低音號" snm="Bar. Hn."
V:2 bass 
V:1
 z2!ff! (!>!G,3/2A,/4B,/4 C) z (!>!G,,3/2A,,/4B,,/4 | C,6-) C,D,/E,/ | F,6 G,2 | %3
 A,3 (G,/F,/) G,3 (F,/E,/ | D,) z!f! (A,3/2B,/4C/4 B,2) A,2 | (A,G,) A,2 B,3 B, | %6
!<(! B,2 C2 (D G2 D)!<)! | (DB,)(C!>(!G,) !tenuto!A,4!>)! | %8
"^9" D,3/2(3(^C,/4D,/4_E,/4 D,E, =E,3/2)(3(^D,/4E,/4F,/4 D,F, | %9
 ^F,3/2)(3(=F,/4F,/4G,/4 F,G, A,>B, C/B,/A,/G,/ | %10
 ^F,3/2)(3(=F,/4^F,/4G,/4 F,G, A,3/2)(3(^G,/4A,/4B,/4 A,/B,/C/D/ | %11
[M:3/4] _E3/2)(F/4E/4 D3/2E/4D/4 ^C2 |[M:4/4] (D8) |"^14" D3/2) z/ z2 z4 | z8 |!p! (_A,4 G,4) | %16
 F,8- |!<(! F,8!<)! |"^19"!ff! [E,G,]6 (G,3/2-G,/8F,/8E,/8D,/8 | C,6-) C,D,/E,/ | %20
 F,G,A,G, F,2 G,2 | A,3 (G,/F,/) G,2!>(! F,_E,!>)! |!f! (D,2 C,2 B,,2 A,,2 | G,,2 A,,2 B,,2 C,2) | %24
 D,8- |!>(! D,8!>)! |!mp! (B,4 A,4) | (A,4 G,4) | (G,4 F,4-) |[M:4/4] (F,4 G,4) | (G,4 A,4) | %31
 (F,4 G,4) | (G,4 F,4) | (F,4 G,4) | (G,4 F,4) | (G,8 | F,8) | (G,8 | F,8) |"^40" (F,4 G,4) | %40
 (G,4 F,4) | (F,4 G,4) | (G,4 F,4) |!p! (F,2!<(! G,2 A,2 G,2!<)! |!mp! G,2 A,2 G, F,3) | %45
 z z z2 z4 | z8 |"^48" (F,2 G,2 A,2 B,2) | (F,2 G,2 A,2 B,2) | (F,2 G,2 A,2 B,2- | B,2 A,2 B,4) | %51
 z4 (B,D) (C/D/B,) | !tenuto!B,4 (B,D) (C/D/B,) |!>(! !tenuto!B,8-!>)! |!p! B,8 | (C4 B,4) | z8 | %57
 z4!<(! B,2 _A,2!<)! ||[K:G]"^59"!f! (G,3 F,) (E,3 D,) | (C,3 D,) !tenuto!G,,2- G,, z | %60
 (D,2 G,F,) (E,3 D,) | (C,3!>(! D,) !tenuto!D,4!>)! | %62
!p! !tenuto!G, !tenuto!G,2 !tenuto!G,- G,3 (!tenuto!D, |!>(! G,6-) G,/A,/G,/F,/!>)! | (G,4 F,4 | %65
 E,4 D,4) | z8 | z8 ||[K:C][M:5/8] z5 | z5 | z5 | z5 | z5 | z5 | z5 | z5 | z5 | z5 | z5 | z5 | z5 | %81
 z5 | z5 ||[M:6/8] z6 |[M:5/8] z5 |[M:6/8] z6 |[M:5/8] z5 | z5 | z5 | z5 | z5 | z5 | z5 | z5 || %94
 A,B,C B,2 | A, z z z2 | z ^F,G, A,2 |[M:6/8] E, z z z2 z |[M:5/8] z E,^F, G,2 | %99
[M:6/8] A,3 A, A,2 |[M:5/8]"^101"!f! !>!A,2 !>!E,3 | !>!A,2 !>!E,3 | .E,!>!E,-E,>E,E, | %103
 E,!>!E,-E, .E,.E, | .D, z z2 z | z5 |!f!!f! !>![F,A,]2 [F,A,]>[F,A,][F,A,] | %107
 .[F,A,]!>![F,A,]-[F,A,] .[F,A,].[F,A,] | .[E,C] z z z2 | z5 | z5 | z5 |!mp! G,3 D,2 | G,3 D,2 | %114
 G,3 D,2 | G,3 D,2 |"^117"!p! G, z z z2 | z5 | z5 | z5 | z5 | z5 | z5 | z5 | z5 | z5 | %126
"^127" _B,3- B,2- | B,3- B,2 | E3- E2 | D3 =EE | .D.D(D C).C | z5 | z5 | z5 | z5 | z5 | %136
"^137"!mf! [_A,C]4- [A,C]- | [A,C]4- [A,C]- | [A,C]4- [A,C] | =B, C2- C2- |!>(! C3- C z!>)! | %141
!mf! !tenuto!_A,!tenuto!_G,!tenuto!F, !tenuto!G,!tenuto!A, | %142
 !tenuto!_B,!tenuto!_A,!tenuto!_G, !tenuto!A,!tenuto!B, | %143
 !tenuto!_A,!tenuto!_G,!tenuto!F, !tenuto!G,!tenuto!A, | !tenuto!D, !tenuto!E,2- E,2- | %145
!>(! E,3- E,2!>)! |"^147" (_A,3- A,2- | A,3- A,2 | _F3 _D2) | G, (_A,2- A,2- | A,3 =F,2) | %151
!mf! (_A,3- A,_B,) | (_A,3- A,_B,) | (_A,3- A,_B,) |!<(! (G,/_A,/ _B,2- B,2- | B,/C/ _D2- D2-!<)! | %156
"^157" D) z z z2 | z5 | z5 | z5 | E,4- E,- | E,4- E,- | E,4- E, |!p! !tenuto!E,4-!<(! E,!<)! | %164
"^165"!f! A,,2 E,>A,C | (A,2 D,) E,2 | A,,2 E,>A,C | (A,2 D,) E,2 | (A,,E,)G, (A,,^F,) | %169
 (A,,E,)D, (B,,C,) | (A,,E,)G, (A,,^F,) |[M:6/8] A,,E,D, ^F, E,2 |[M:5/8] z5 |[M:6/8] z6 | %174
[M:5/8] z5 |[M:6/8] z6 |[M:5/8] z!p! .E,(E, .^F,).F, | z .E,(E, .^F,).F, | z .E,(E, .^F,).F, | %179
 .E, z z .D, z | .E, z z z2 |[M:6/8] z6 | z6 | z6 |[M:3/4] z2 z2!f! (C2 ||[K:Bb][M:3/4] D3 C B,A, | %186
 B,3) (F, B,D | CD CB, A,C | B,C B,A, G,F, | G,2 B,3 A, | G,2 A,2 B,2- | B,4) !tenuto!C2 | %192
 B,4 (C2 |"^194" D3 C B,A, | B,C D2) (B,A, | G,2 A,B, C>E | DC B,A, B,2- | B,4- B,A, | %198
 G,2 A,2!>(! B,2- | B,)!>)! z z2 z2 | z2 z2!f! (F,2 |"^202" B,3) (F, B,C | D4) (ED | C2 D2) (CB,) | %204
 !tenuto!B,4 (E>G | F E2 F D2) | (D2 CB,) (B,D | CB, CD) (B,A, |!>(! B,3) z!>)!!mp!!<(! (F,2- | %209
"^210" F,2!<)! G,F, E,D, |!>(! C,4 D,2)!>)! | z6 | z2 z2!p! (!tenuto!F,2- | B,4- B,A, | %214
!<(! B,6!<)! | C2 D2 E2) |!>(! (B,4- B,A,!>)! |!mf! G,2 A,2 B,2) | B,4 (C2- | C2 !tenuto!F,4 | %220
 !tenuto!B,4!p! !tenuto!F,2- | F,6 | B,4 C2 ||[K:G][M:2/4] .[G,D]) z z2 | z4 | %225
 z!f! (B,/!<(!C/!sfz! .D)!<)! z | z4 | z4 | z4 | z4 | z4 | z4 | z4 |"^234"!p! D,4- | D,4- | D,4- | %236
 D,4 | D,4- | D,4- | D,4- | D,4- | D,4- | D,4- | D,4- | D,2 E,2 | F,2 G,2 | %246
!f! !>![F,A,]2 !>![F,A,]2 | z4 | !>!D,2 !>!D,2 | !>!D,2 !>!D,2 |"^251"!p! D,4- | D,4- | D,4- | %253
 D,2 .E,.=F, | G,4- | G,4- | G,4- | G,2 .A,.B, | C4- | C4- | C4- | C4- |!<(! C2 .B,.A,!<)! | %263
!f! !>!D2 !>!D2 | z4 | !>!D,2 !>!D,2 | !>!D,2 !>!D,2 |"^268" z2!f! D, z | E, z =F, z | E, z D, z | %270
 ^C, z D, z |!p! !>!D,4 | !>!^C,4 | !>!D,4 | !>!E,4 | !>!F,4 | !>!E,4 | !>!F,4 | !>!G,4 | %279
"_cresc." !>!_A,4 | !>!G,4 | !>!F,2 !>!G,2 | (3!>!_A,2 !>!_B,2 !>!=B,2 | C4- |!f!!>(! C4-!>)! | %285
!p! C z z2 | z4 |"^288"!p! !>!A,4 | !>!^G,4 | !>!A,4 | !>!B,4 | !>!C4 | !>!B,4 | !>!C4 | %294
"_cresc." !>!D4 | !>!_E4 | !>!D4 | C2 D2 | (3E2 =F2 ^F2 |!f! G4- |!>(! G4-!>)! |!p! G z z2 | z4 | %303
 z4 | z4 | z4 |!p! E,4- | E,4- | E,4- | E,4- | E,4- | E,4- |!>(! E,4-!>)! |!pp! E, z z2 | z4 | z4 | %316
"^317"!p! E,4- | E,4- | E,4- | E,4 | F,4- | F,4- | F,4- | F,4 | .G, z z2 |"^326" z2 D, z | %326
 G, z D, z | G, z z2 | z4 | z4 | z4 | z4 | z4 | z4 | z4 | z4 | z4 |"^338"!p! .E z .B, z | %338
 .E z .B, z | .E z .B, z | .E z .B, z | G, ^G,3- | G,4- | G,4- | G,4- | %345
!mf! G,!<(!.^G,/.G,/ .G,.G,!<)! |"^347" _B, z z2 | z!ff! .=F, .G,.A, | ._B,.C (._D>C | %349
 ._B,)._A, .G,.=F, | (E,.=F, .G,).F, | .E,._D, .C,._B,, | !>!A,,2 !>!A,,2 | !>!G,2 !>!G,2 | %354
 !>!=F,2 !>!F,2 | !>!_E,2 (!>!E,2 ||"^357" .D,) z .A, z | .F, z .D, z | .A,, z .D, z | %359
 .F, z .D, z | A, !>!G,2 !>!E,- | E, !>!C,2 .A,, | .D, z .A, z | .F, z .D, z | .A,, z .D, z | %365
 .F, z .D, z | .A, !>!G,2 _E,- | E,.C, .A,,.A, |"^369" .D, z z2 | z4 | z4 | z4 | z2!ff! !>!A,2- | %373
 A,2 !>![G,_B,-]2 | !>![F,B,]2 !>![G,C]2 | !>![=F,_B,]2 !>![_E,A,]2 | !>![D,A,]2 !>![D,A,]2 | z4 | %378
 !>![D,D]2 !>![D,D]2 | !>![D,D]2 !>![D,D]2 |"^381" D,4- | D,4- | D,4- | D,4- | D,4- | D,4- | D,4- | %387
 D,4 |!p! D,4- | D,4- | D,4- | D,4- | D,4- | D,4- | D,2 E,2 | F,2 G,2 | D,2"_cresc." E,2 | %397
 F,2 A,2- | A,.D, .F,.G, | .D,.F, .A,.D, | .F,.A, .D,!f!.F, |"^402" z!ff! A, _B,C | DE !>!=F>E | %403
 DC _B,A, | G,=F, _E,D, | [G,B,]4- | [G,B,]4- | [G,B,]4- | [G,B,]4- | [G,B,] z z2 | z4 | z4 | %412
 z2!ff! (D2 |"^414" E)!>!.=F .E.D | .^C.D .=C.B, | .^A,.B, .=A,.G, | .=F,.E, .D,.^C, | .D, z z2 | %418
 z4 | z2!ff! !^!=F, z | !^!_E, z !^!D, z | !^!G, z z2 |] %422
V:2
 x8 | x8 | x8 | x8 | x8 | x8 | x8 | x8 | x8 | x8 | x8 |[M:3/4] (G,2 A,2 B,2 | %12
[M:4/4] (A,6-) A,G,/^F,/ | G,) z z2 z4 | x8 | (F,4 _E,4) | D,8- | D,8 | x8 | x8 | x8 | x8 | x8 | %23
 x8 | x8 | x8 | _E,8 | D,8 | (C,8 |[M:4/4] B,,) z z2 z4 | x8 | x8 | x8 | x8 | x8 | x8 | x8 | x8 | %38
 x8 | x8 | x8 | x8 | x8 | B,,8- | B,,8- | B,, z z2 z4 | x8 | x8 | x8 | x8 | x8 | x8 | x8 | x8 | %54
 x8 | (_A,4 B,4) | x8 | x8 ||[K:G] x8 | x8 | x8 | x8 | x8 | x8 | G, z z2 z4 | x8 | x8 | x8 || %68
[K:C][M:5/8] x5 | x5 | x5 | x5 | x5 | x5 | x5 | x5 | x5 | x5 | x5 | x5 | x5 | x5 | x5 || %83
[M:6/8] x6 |[M:5/8] x5 |[M:6/8] x6 |[M:5/8] x5 | x5 | x5 | x5 | x5 | x5 | x5 | x5 || x5 | x5 | x5 | %97
[M:6/8] x6 |[M:5/8] x5 |[M:6/8] x6 |[M:5/8] x5 | x5 | x5 | x5 | x5 | x5 | x5 | x5 | x5 | x5 | x5 | %111
 x5 | x5 | x5 | x5 | x5 | x5 | x5 | x5 | x5 | x5 | x5 | x5 | x5 | x5 | x5 | G,3- G,2- | G,3- G,2 | %128
 G,3 C2 | _B,3 CC | ._B,.B,(B, G,).G, | x5 | x5 | x5 | x5 | x5 | x5 | x5 | x5 | G,3 F,2 | C,3 F,2 | %141
 x5 | x5 | x5 | x5 | x5 | x5 | x5 | x5 | x5 | x5 | x5 | x5 | x5 | x5 | x5 | x5 | x5 | x5 | x5 | %160
 x5 | x5 | x5 | x5 | x5 | x5 | x5 | x5 | x5 | x5 | x5 |[M:6/8] x6 |[M:5/8] x5 |[M:6/8] x6 | %174
[M:5/8] x5 |[M:6/8] x6 |[M:5/8] x5 | x5 | x5 | x5 | x5 |[M:6/8] x6 | x6 | x6 |[M:3/4] x6 || %185
[K:Bb][M:3/4] x6 | x6 | x6 | x6 | x6 | x6 | x6 | x6 | x6 | x6 | x6 | x6 | x6 | x6 | x6 | x6 | x6 | %202
 x6 | x6 | x6 | x6 | x6 | x6 | x6 | x6 | x6 | x6 | x4 ((F,2 | F,6-) | F,4!f! [G,=B,]F, | %215
 E,2 D,2 C,2) | !tenuto!F,6 | E,4- E,2 | !tenuto!F,6 | !tenuto!F,6 | x4 F,2 | F,6 | F,4 _A,2 || %223
[K:G][M:2/4] x4 | x4 | x4 | x4 | x4 | x4 | x4 | x4 | x4 | x4 | x4 | x4 | x4 | x4 | x4 | x4 | x4 | %240
 x4 | x4 | x4 | x4 | x4 | x4 | x4 | x4 | x4 | x4 | x4 | x4 | x4 | x4 | x4 | x4 | x4 | x4 | x4 | %259
 x4 | x4 | x4 | x4 | x4 | x4 | x4 | x4 | x4 | x4 | x4 | x4 | x4 | x4 | x4 | x4 | x4 | x4 | x4 | %278
 x4 | x4 | x4 | x4 | x4 | x4 | x4 | x4 | x4 | x4 | x4 | x4 | x4 | x4 | x4 | x4 | x4 | x4 | x4 | %297
 x4 | x4 | x4 | x4 | x4 | x4 | x4 | x4 | x4 | x4 | x4 | x4 | x4 | x4 | x4 | x4 | x4 | x4 | x4 | %316
 x4 | x4 | x4 | x4 | x4 | x4 | x4 | x4 | x4 | x4 | x4 | x4 | x4 | x4 | x4 | x4 | x4 | x4 | x4 | %335
 x4 | x4 | x4 | x4 | x4 | x4 | x4 | x4 | x4 | x4 | x4 | x4 | x4 | x4 | x4 | x4 | x4 | x4 | x4 | %354
 x4 | x4 || x4 | x4 | x4 | x4 | x4 | x4 | x4 | x4 | x4 | x4 | x4 | x4 | x4 | x4 | x4 | x4 | x4 | %373
 x4 | x4 | x4 | x4 | x4 | x4 | x4 | x4 | x4 | x4 | x4 | x4 | x4 | x4 | x4 | x4 | x4 | x4 | x4 | %392
 x4 | x4 | x4 | x4 | x4 | x4 | x4 | x4 | x4 | x4 | x4 | x4 | x4 | x4 | x4 | x4 | x4 | x4 | x4 | %411
 x4 | x4 | x4 | x4 | x4 | x4 | x4 | x4 | x4 | x4 | x4 |] %422

